X: 0824
T: PETER STREET DANCE
B: Oliver Ditson "The Boston Collection of Instrumental Music" 1910 p.82 #4
F: http://conquest.imslp.info/files/imglnks/usimg/8/8f/IMSLP175643-PMLP309456-bostoncollection00bost_bw.pdf
%: 2012 John Chambers <jc:trillian.mit.edu>
M: 2/4
L: 1/16
K: A
|:\
A2(3cBA eA (3cBA | eAaA gAfA |\
eA (3cBA eA (3cBA | (3GFE BE dE (3GFE |\
A2(3cBA eA (3cBA | eAaA gAfA |\
efec eaec | (3cBA Bc AAA2 H:|
E2(3GFE BE (3GFE | GE dE BE (3GFE |\
A2(3cBA eA (3cBA | eAaA gAfA |\
efec agaf | efec agaf |\
ecag fedc | BAGF "DA CAPO"EdcB |]

%%sep 1 1 500
%%sep 1 1 500
